X: 3054
T: UP AN' WAUR THEM A' WULLIE
Q:"Reel."
R: Reel.
%R:reel
B: James Kerr "Merry Melodies" v.3 p.8 #54
Z: 2016 John Chambers <jc:trillian.mit.edu>
M: C
L: 1/8
K: G
|:\
G/G/G BG c2ce | G/G/G BG A2FD |\
GABG cdeg | dcBA G2d2 ::\
gedB cdef | gedB A3f |\
gedB cdeg |[1 dcBA G3d :|[2 dcBA GFED |]

%%sep 1 1 500
%%sep 1 1 500

